src/img/loyaltyIcon3.svg

<svg xmlns="http://www.w3.org/2000/svg" width="33" height="22" fill="none"><path fill="#F8A644" d="M9.6 8.9c-.1 0-.4-.1-.7-.1H7.4v2.1h1.5c.5 0 .9-.1 1.1-.3.2-.2.3-.4.3-.8 0-.2-.1-.5-.2-.6-.1-.1-.3-.2-.5-.3ZM13.5 8.8c-.1.4-.2.7-.3 1.1l-.6 1.7h2l-.7-1.6c-.2-.5-.3-.9-.4-1.2Z"/><path fill="#F8A644" d="M30.5 10.2c0-1.3.9-2.5 2.1-2.9V2c0-1.1-.9-2-2-2H2C.9 0 0 .9 0 2v5.3c1.2.4 2.1 1.6 2.1 2.9 0 1.3-.9 2.5-2.1 2.9v6.3c0 1.1.9 2 2 2h28.5c1.1 0 2-.9 2-2v-6.3c-1.1-.4-2-1.6-2-2.9ZM8.9 11.6H7.4V14h-.8V8.2h2.2c.4 0 .7 0 .9.1.3 0 .5.1.7.3.2.1.4.3.5.6.1.2.2.5.2.8 0 .5-.2.9-.5 1.3-.3.2-.9.3-1.7.3Zm6.5 2.4-.7-1.8h-2.4l-.7 1.8h-.8L13 8.2h.8l2.4 5.8h-.8Zm5.6-.8c-.2.3-.4.5-.8.6-.3.2-.7.2-1.1.2-.5 0-1-.1-1.3-.2-.4-.2-.6-.4-.8-.7-.2-.3-.3-.7-.3-1l.7-.1c0 .3.1.5.2.7.1.2.3.3.6.5.3.1.6.2.9.2.3 0 .6 0 .8-.1.2-.1.4-.2.5-.4.1-.2.2-.3.2-.5s-.1-.3-.2-.5c-.1-.1-.3-.3-.5-.3-.2-.1-.5-.2-1-.3-.5-.1-.9-.2-1.1-.4-.3-.1-.5-.3-.6-.5-.1-.2-.2-.5-.2-.7 0-.3.1-.6.3-.8.2-.3.4-.5.7-.6.3-.1.7-.2 1.1-.2.4 0 .8.1 1.1.2.3.1.6.3.8.6.2.3.3.6.3.9l-.7.1c0-.4-.2-.6-.4-.8-.2-.2-.6-.3-1-.3-.5 0-.8.1-1 .3-.2.2-.3.4-.3.6 0 .2.1.4.2.5.1.1.5.3 1.2.4.6.1 1.1.3 1.3.4.3.2.6.4.8.6.2.2.2.5.2.8-.3.3-.4.6-.6.8Zm5.5 0c-.2.3-.4.5-.8.6-.3.2-.7.2-1.1.2-.5 0-1-.1-1.3-.2-.4-.2-.6-.4-.8-.7-.2-.3-.3-.7-.3-1l.7-.1c0 .3.1.5.2.7.1.2.3.3.6.5.3.1.6.2.9.2.3 0 .6 0 .8-.1.2-.1.4-.2.5-.4.1-.2.2-.3.2-.5s-.1-.3-.2-.5c-.1-.1-.3-.3-.5-.3-.2-.1-.5-.2-1-.3-.5-.1-.9-.2-1.1-.4-.3-.1-.5-.3-.6-.5-.1-.2-.2-.5-.2-.7 0-.3.1-.6.2-.8.2-.3.4-.5.7-.6.3-.1.7-.2 1.1-.2.4 0 .8.1 1.1.2.3.1.6.3.8.6.2.3.3.6.3.9l-.7.1c0-.4-.2-.6-.4-.8-.2-.2-.6-.3-1-.3-.5 0-.8.1-1 .3-.2.2-.3.4-.3.6 0 .2.1.4.2.5.1.1.5.3 1.2.4.6.1 1.1.3 1.3.4.3.2.6.4.8.6.2.2.2.5.2.8-.3.3-.4.6-.5.8Z"/></svg>

<svg width="33" height="22" viewBox="0 0 33 22" fill="none" xmlns="http://www.w3.org/2000/svg">
<path d="M9.59999 8.89999C9.49999 8.89999 9.19999 8.79999 8.89999 8.79999H7.39999V10.9H8.89999C9.39999 10.9 9.79999 10.8 9.99999 10.6C10.2 10.4 10.3 10.2 10.3 9.79999C10.3 9.59999 10.2 9.29999 10.1 9.19999C9.99999 9.09999 9.79999 8.99999 9.59999 8.89999Z" fill="#F8A644"/>
<path d="M13.5 8.79999C13.4 9.19999 13.3 9.49999 13.2 9.89999L12.6 11.6H14.6L13.9 9.99999C13.7 9.49999 13.6 9.09999 13.5 8.79999Z" fill="#F8A644"/>
<path d="M30.5 10.2C30.5 8.9 31.4 7.7 32.6 7.3V2C32.6 0.9 31.7 0 30.6 0H2C0.9 0 0 0.9 0 2V7.3C1.2 7.7 2.1 8.9 2.1 10.2C2.1 11.5 1.2 12.7 0 13.1V19.4C0 20.5 0.9 21.4 2 21.4H30.5C31.6 21.4 32.5 20.5 32.5 19.4V13.1C31.4 12.7 30.5 11.5 30.5 10.2ZM8.9 11.6H7.4V14H6.6V8.2H8.8C9.2 8.2 9.5 8.2 9.7 8.3C10 8.3 10.2 8.4 10.4 8.6C10.6 8.7 10.8 8.9 10.9 9.2C11 9.4 11.1 9.7 11.1 10C11.1 10.5 10.9 10.9 10.6 11.3C10.3 11.5 9.7 11.6 8.9 11.6ZM15.4 14L14.7 12.2H12.3L11.6 14H10.8L13 8.2H13.8L16.2 14H15.4ZM21 13.2C20.8 13.5 20.6 13.7 20.2 13.8C19.9 14 19.5 14 19.1 14C18.6 14 18.1 13.9 17.8 13.8C17.4 13.6 17.2 13.4 17 13.1C16.8 12.8 16.7 12.4 16.7 12.1L17.4 12C17.4 12.3 17.5 12.5 17.6 12.7C17.7 12.9 17.9 13 18.2 13.2C18.5 13.3 18.8 13.4 19.1 13.4C19.4 13.4 19.7 13.4 19.9 13.3C20.1 13.2 20.3 13.1 20.4 12.9C20.5 12.7 20.6 12.6 20.6 12.4C20.6 12.2 20.5 12.1 20.4 11.9C20.3 11.8 20.1 11.6 19.9 11.6C19.7 11.5 19.4 11.4 18.9 11.3C18.4 11.2 18 11.1 17.8 10.9C17.5 10.8 17.3 10.6 17.2 10.4C17.1 10.2 17 9.9 17 9.7C17 9.4 17.1 9.1 17.3 8.9C17.5 8.6 17.7 8.4 18 8.3C18.3 8.2 18.7 8.1 19.1 8.1C19.5 8.1 19.9 8.2 20.2 8.3C20.5 8.4 20.8 8.6 21 8.9C21.2 9.2 21.3 9.5 21.3 9.8L20.6 9.9C20.6 9.5 20.4 9.3 20.2 9.1C20 8.9 19.6 8.8 19.2 8.8C18.7 8.8 18.4 8.9 18.2 9.1C18 9.3 17.9 9.5 17.9 9.7C17.9 9.9 18 10.1 18.1 10.2C18.2 10.3 18.6 10.5 19.3 10.6C19.9 10.7 20.4 10.9 20.6 11C20.9 11.2 21.2 11.4 21.4 11.6C21.6 11.8 21.6 12.1 21.6 12.4C21.3 12.7 21.2 13 21 13.2ZM26.5 13.2C26.3 13.5 26.1 13.7 25.7 13.8C25.4 14 25 14 24.6 14C24.1 14 23.6 13.9 23.3 13.8C22.9 13.6 22.7 13.4 22.5 13.1C22.3 12.8 22.2 12.4 22.2 12.1L22.9 12C22.9 12.3 23 12.5 23.1 12.7C23.2 12.9 23.4 13 23.7 13.2C24 13.3 24.3 13.4 24.6 13.4C24.9 13.4 25.2 13.4 25.4 13.3C25.6 13.2 25.8 13.1 25.9 12.9C26 12.7 26.1 12.6 26.1 12.4C26.1 12.2 26 12.1 25.9 11.9C25.8 11.8 25.6 11.6 25.4 11.6C25.2 11.5 24.9 11.4 24.4 11.3C23.9 11.2 23.5 11.1 23.3 10.9C23 10.8 22.8 10.6 22.7 10.4C22.6 10.2 22.5 9.9 22.5 9.7C22.5 9.4 22.6 9.1 22.7 8.9C22.9 8.6 23.1 8.4 23.4 8.3C23.7 8.2 24.1 8.1 24.5 8.1C24.9 8.1 25.3 8.2 25.6 8.3C25.9 8.4 26.2 8.6 26.4 8.9C26.6 9.2 26.7 9.5 26.7 9.8L26 9.9C26 9.5 25.8 9.3 25.6 9.1C25.4 8.9 25 8.8 24.6 8.8C24.1 8.8 23.8 8.9 23.6 9.1C23.4 9.3 23.3 9.5 23.3 9.7C23.3 9.9 23.4 10.1 23.5 10.2C23.6 10.3 24 10.5 24.7 10.6C25.3 10.7 25.8 10.9 26 11C26.3 11.2 26.6 11.4 26.8 11.6C27 11.8 27 12.1 27 12.4C26.7 12.7 26.6 13 26.5 13.2Z" fill="#F8A644"/>
</svg>
